public/img/StipendiumDateCircle.svg

<svg fill="none" height="49" viewBox="0 0 150 49" width="150" xmlns="http://www.w3.org/2000/svg"><path d="m133.41 7.53601c-19.408-3.53484-38.9725-4.82484-58.9683-4.98097-17.9123-.13987-42.3744-2.743213-58.4566 4.67351-8.10296 3.73685-14.79279 13.25985-12.54472 20.23135 1.52587 4.7319 5.4622 8.7054 11.39262 11.0689 14.3781 5.7302 33.3812 6.7959 49.4108 7.7481 17.7535 1.0547 37.3842 1.4789 54.5312-2.4904 7.163-1.6582 13.957-4.1961 20.182-7.2255 2.822-1.3731 7.227-3.389 8.534-5.8727 2.519-4.7853-4.904-11.5378-9.344-14.4817-6.428-4.2609-13.938-6.33264-22.402-7.01026" stroke="#30e1b9" stroke-linecap="round" stroke-linejoin="round" stroke-width="4"/></svg>

<svg width="150" height="49" viewBox="0 0 150 49" fill="none" xmlns="http://www.w3.org/2000/svg">
<path d="M133.41 7.53601C114.002 4.00117 94.4375 2.71117 74.4417 2.55504C56.5294 2.41517 32.0673 -0.188173 15.9851 7.22855C7.88214 10.9654 1.19231 20.4884 3.44038 27.4599C4.96625 32.1918 8.90258 36.1653 14.833 38.5288C29.2111 44.259 48.2142 45.3247 64.2438 46.2769C81.9973 47.3316 101.628 47.7558 118.775 43.7865C125.938 42.1283 132.732 39.5904 138.957 36.561C141.779 35.1879 146.184 33.172 147.491 30.6883C150.01 25.903 142.587 19.1505 138.147 16.2066C131.719 11.9457 124.209 9.87396 115.745 9.19634" stroke="#30E1B9" stroke-width="4" stroke-linecap="round" stroke-linejoin="round"/>
</svg>
